src/images/icon-adv-6.svg

<svg width="80" height="80" viewBox="0 0 80 80" fill="none" xmlns="http://www.w3.org/2000/svg">
<path d="M40.0823 3.9425C20.2055 3.9425 4.10693 20.0411 4.10693 39.7536C4.10693 59.6304 20.2055 75.729 40.0823 75.729C59.9591 75.729 76.2219 59.6304 76.2219 39.7536C76.2219 20.0411 59.9591 3.9425 40.0823 3.9425ZM40.0823 74.4148C21.0269 74.4148 5.25683 58.9733 5.25683 39.7536C5.25683 20.6982 20.8626 5.0924 40.0823 5.0924C59.302 5.0924 74.9078 20.6982 74.9078 39.7536C74.9078 58.809 59.302 74.4148 40.0823 74.4148Z" fill="white"/>
<path d="M43.5318 38.9322C44.6817 40.0821 45.1745 41.3963 45.1745 43.2033C45.1745 45.1745 44.5174 46.653 43.6961 47.6386C42.8747 48.46 41.3963 49.4456 38.9322 49.4456C37.4538 49.4456 35.9753 49.117 34.4969 48.2957C33.0185 47.6386 32.0328 46.653 31.2115 45.6673L29.2402 50.7597C30.3901 51.7454 31.8686 52.731 33.0185 53.3881C35.3183 54.538 37.9466 54.538 39.5893 54.538C42.8747 54.538 45.6673 53.8809 48.1314 51.4168C50.2669 49.4456 51.2526 46.8172 51.2526 43.5318C51.2526 41.7248 50.924 38.6037 48.4599 36.1396C46.8172 34.3326 43.8604 33.1827 40.5749 33.1827C39.7536 33.1827 39.0965 33.1827 38.4394 33.347L39.5893 28.5832H49.9384V23.3265H35.6468L32.0328 39.425C34.3326 37.9466 36.4682 37.4538 38.6037 37.4538C40.0821 37.4538 41.8891 37.6181 43.5318 38.9322Z" fill="white"/>
<path d="M30.7187 65.5441C30.7187 66.3655 30.3901 66.694 30.3901 66.694C30.0616 67.0226 29.5688 67.0226 29.2402 66.8583V68.6653C29.5688 68.8295 29.733 68.8296 30.0616 68.8296C30.7187 68.8296 31.54 68.8296 32.0328 68.1725C32.5257 67.6797 32.8542 67.0226 32.8542 65.7084V63.4086H34.6612V68.6653H36.961V61.6016H30.7187V65.5441Z" fill="white"/>
<path d="M42.2177 61.2731C41.5606 61.2731 40.4107 61.4374 39.5894 62.423C38.768 63.0801 38.4395 64.23 38.4395 65.2156C38.4395 66.3655 38.9323 67.3512 39.5894 68.0082C40.4107 68.8296 41.3963 68.9939 42.382 68.9939C43.2033 68.9939 44.0247 68.8296 44.6818 68.5011C45.0103 68.1725 45.6674 67.6797 45.9959 66.6941L43.8604 66.3655C43.6961 66.8584 43.3676 67.0226 43.3676 67.0226C43.039 67.1869 42.7105 67.3512 42.382 67.3512C42.0534 67.3512 41.5606 67.1869 41.2321 66.8584C40.9035 66.5298 40.7393 66.037 40.7393 65.5442H46.1602V65.3799C46.1602 64.3943 45.9959 63.4087 45.1746 62.423C44.1889 61.4374 43.039 61.2731 42.2177 61.2731ZM40.9035 64.23C40.9035 63.9015 41.0678 63.5729 41.2321 63.4087C41.5606 63.2444 41.8891 62.9158 42.5462 62.9158C42.8748 62.9158 43.3676 63.0801 43.5319 63.4087C43.8604 63.7372 44.0247 64.23 44.0247 64.23H40.9035Z" fill="white"/>
<path d="M46.8174 63.4086H48.7886V68.8296H51.0884V63.4086H53.0597V61.6016H46.8174V63.4086Z" fill="white"/>
<path d="M16.0988 21.848L14.9489 21.0267L12.4849 24.4764L18.0701 28.4189L18.8914 27.1047L14.6204 23.9836L16.0988 21.848Z" fill="white"/>
<path d="M20.0412 16.2628L20.534 16.9199C19.3841 16.7557 18.727 17.0842 18.2342 17.4127C16.92 18.7269 16.7558 20.6982 18.0699 22.3409C19.3841 23.655 21.3554 24.3121 22.9981 22.8337C23.3266 22.5051 23.9837 22.0123 23.9837 20.8624L24.3122 21.3552L25.6264 20.3696L21.1911 15.2772L20.0412 16.2628ZM22.1767 18.8912C23.1623 19.8768 22.9981 21.0267 22.1767 21.6838C21.3554 22.3409 20.0412 22.1766 19.3841 21.191C18.5627 20.3696 18.5627 19.0555 19.3841 18.3984C20.0412 17.7413 21.3554 17.7413 22.1767 18.8912Z" fill="white"/>
<path d="M27.7621 18.3983C28.7478 18.8912 29.7334 18.5626 30.0619 18.3983C31.5404 17.7413 32.526 15.9343 31.5404 13.7988C30.719 11.8275 28.7477 11.1704 27.105 11.9918C26.448 12.156 25.9551 12.6489 25.6266 13.4702L25.4623 12.8131L23.9839 13.4702L28.0907 23.1622L29.5691 22.5051L27.7621 18.3983ZM26.6122 16.0985C26.1194 14.7844 26.6122 13.6345 27.5979 13.3059C28.5835 12.8131 29.5691 13.4702 30.0619 14.6201C30.5547 15.6057 30.2262 16.7556 29.2406 17.2484C28.4192 17.7413 27.2693 17.4127 26.6122 16.0985Z" fill="white"/>
<path d="M36.797 16.7557C37.2898 16.5914 38.1111 16.4271 38.604 15.6058L38.7682 16.2628L40.2467 16.0986L39.5896 9.36346L37.9469 9.52774L38.1111 10.3491C37.2898 9.52774 36.4684 9.52774 35.9756 9.52774C34.1686 9.69201 32.8545 11.3347 33.0187 13.4702C33.3473 15.2772 34.6615 16.9199 36.797 16.7557ZM36.3042 11.0062C37.2898 10.8419 38.2754 11.499 38.4397 12.9774C38.604 14.2916 37.7826 15.113 36.797 15.2772C35.6471 15.4415 34.8257 14.4559 34.6615 13.306C34.4972 12.1561 35.1543 11.1704 36.3042 11.0062Z" fill="white"/>
<path d="M43.6961 13.6345L46.3244 14.1273L45.9959 16.9199L47.4743 17.0842L48.6242 10.5133L46.9815 10.1848L46.6529 12.6489L43.8603 12.156L44.3532 9.69198L42.7104 9.52771L41.5605 16.0986L43.2033 16.4271L43.6961 13.6345Z" fill="white"/>
<path d="M51.2529 18.7269L53.3884 13.7987L55.1954 14.6201L55.6882 13.3059L50.5958 11.1704L50.103 12.4846L51.9099 13.3059L49.7744 18.0698L51.2529 18.7269Z" fill="white"/>
<path d="M56.5091 18.3984L58.8088 15.4415L57.6589 14.4559L53.2236 20.2054L59.6302 19.5483L57.1661 22.6694L58.4803 23.4908L62.9156 17.7413L56.5091 18.3984Z" fill="white"/>
<path d="M66.037 22.1766C65.5442 21.6838 65.0514 21.191 64.3943 21.0267C63.5729 20.8625 63.0801 21.191 62.7516 21.5195C62.2588 21.8481 62.0945 22.1766 61.9302 22.8337C61.9302 23.1622 61.9302 23.4908 62.2588 23.9836L58.8091 23.8193L59.959 25.2978H63.0801L63.2444 25.6263L61.2731 27.1048L62.0945 28.4189L67.5154 24.3121L66.037 22.1766ZM64.23 24.805L63.5729 24.1479C63.4087 23.8193 63.2444 23.4908 63.2444 23.3265C63.2444 23.1622 63.2444 22.8337 63.5729 22.6694C63.7372 22.3409 64.0658 22.3409 64.23 22.5052C64.5586 22.6694 64.7228 22.8337 64.8871 23.1622L65.3799 23.8193L64.23 24.805Z" fill="white"/>
<path d="M39.9179 80C17.9055 80 0 62.0945 0 39.9179C0 17.9055 17.9055 0 39.9179 0C62.0945 0 80 17.9055 80 39.9179C80 62.0945 62.0945 80 39.9179 80ZM39.9179 2.29979C19.2197 2.29979 2.29979 19.2197 2.29979 39.9179C2.29979 60.7803 19.2197 77.7002 39.9179 77.7002C60.7803 77.7002 77.7002 60.7803 77.7002 39.9179C77.7002 19.2197 60.7803 2.29979 39.9179 2.29979Z" fill="white"/>
</svg>

<svg xmlns="http://www.w3.org/2000/svg" width="80" height="80" fill="none" viewBox="0 0 80 80">
	<path fill="#fff" d="M40.082 3.942c-19.877 0-35.975 16.1-35.975 35.812 0 19.876 16.099 35.975 35.975 35.975 19.877 0 36.14-16.099 36.14-35.975 0-19.713-16.263-35.811-36.14-35.811zm0 70.473c-19.055 0-34.825-15.442-34.825-34.661 0-19.056 15.606-34.662 34.825-34.662 19.22 0 34.826 15.606 34.826 34.662 0 19.055-15.606 34.66-34.826 34.66z"/>
	<path fill="#fff" d="M43.532 38.932c1.15 1.15 1.643 2.464 1.643 4.271 0 1.971-.658 3.45-1.479 4.436-.821.821-2.3 1.807-4.764 1.807a8.942 8.942 0 0 1-4.435-1.15c-1.478-.657-2.464-1.643-3.285-2.629L29.24 50.76c1.15.985 2.629 1.971 3.779 2.628 2.3 1.15 4.928 1.15 6.57 1.15 3.286 0 6.078-.657 8.542-3.121 2.136-1.971 3.122-4.6 3.122-7.885 0-1.807-.329-4.928-2.793-7.392-1.643-1.807-4.6-2.957-7.885-2.957-.821 0-1.479 0-2.136.164l1.15-4.764h10.35v-5.256H35.646l-3.614 16.098c2.3-1.478 4.435-1.971 6.57-1.971 1.48 0 3.286.164 4.929 1.478zM30.719 65.544c0 .822-.329 1.15-.329 1.15-.328.329-.821.329-1.15.164v1.807c.329.164.493.165.822.165.657 0 1.478 0 1.97-.657.494-.493.822-1.15.822-2.465v-2.3h1.807v5.257h2.3v-7.063h-6.242v3.942zM42.218 61.273c-.657 0-1.807.164-2.629 1.15-.821.657-1.15 1.807-1.15 2.793 0 1.15.493 2.135 1.15 2.792.822.822 1.807.986 2.793.986.821 0 1.643-.164 2.3-.493.328-.329.985-.821 1.314-1.807l-2.136-.329c-.164.493-.492.658-.492.658-.329.164-.657.328-.986.328-.329 0-.821-.164-1.15-.493-.328-.328-.493-.821-.493-1.314h5.421v-.164c0-.986-.164-1.971-.985-2.957-.986-.986-2.136-1.15-2.957-1.15zm-1.315 2.957c0-.329.165-.657.33-.821.328-.165.656-.493 1.313-.493.329 0 .822.164.986.493.328.328.493.821.493.821h-3.121zM46.817 63.409h1.972v5.42h2.3v-5.42h1.97v-1.807h-6.242v1.807zM16.099 21.848l-1.15-.821-2.464 3.45 5.585 3.942.821-1.314-4.27-3.121 1.478-2.136zM20.041 16.263l.493.657c-1.15-.164-1.807.164-2.3.493-1.314 1.314-1.478 3.285-.164 4.928 1.314 1.314 3.285 1.971 4.928.493.329-.329.986-.822.986-1.972l.328.493 1.314-.985-4.435-5.093-1.15.986zm2.136 2.628c.985.986.821 2.136 0 2.793-.822.657-2.136.493-2.793-.493-.821-.821-.821-2.136 0-2.793.657-.657 1.971-.657 2.793.493zM27.762 18.398c.986.493 1.971.165 2.3 0 1.478-.657 2.464-2.464 1.478-4.6-.821-1.97-2.792-2.628-4.435-1.806-.657.164-1.15.657-1.478 1.478l-.165-.657-1.478.657 4.107 9.692 1.478-.657-1.807-4.107zm-1.15-2.3c-.493-1.314 0-2.463.986-2.792.986-.493 1.971.164 2.464 1.314.493.986.164 2.136-.821 2.628-.822.493-1.972.165-2.629-1.15zM36.797 16.756c.493-.165 1.314-.329 1.807-1.15l.164.657 1.479-.164-.657-6.736-1.643.165.164.821c-.821-.821-1.643-.821-2.135-.821-1.807.164-3.121 1.807-2.957 3.942.328 1.807 1.642 3.45 3.778 3.286zm-.493-5.75c.986-.164 1.971.493 2.136 1.971.164 1.315-.657 2.136-1.643 2.3-1.15.165-1.971-.821-2.136-1.971-.164-1.15.493-2.136 1.643-2.3zM43.696 13.634l2.628.493-.328 2.793 1.478.164 1.15-6.57-1.643-.33-.328 2.465-2.793-.493.493-2.464-1.643-.164-1.15 6.57 1.643.33.493-2.794zM51.253 18.727l2.135-4.928 1.807.821.493-1.314-5.092-2.136-.493 1.315 1.807.82-2.136 4.765 1.479.657zM56.51 18.398l2.299-2.957-1.15-.985-4.435 5.75 6.406-.658-2.464 3.121 1.314.822 4.436-5.75-6.407.657zM66.037 22.177c-.493-.493-.986-.986-1.643-1.15-.821-.165-1.314.164-1.642.492-.493.33-.658.658-.822 1.315 0 .328 0 .657.329 1.15l-3.45-.165 1.15 1.479h3.121l.164.328-1.97 1.479.82 1.314 5.421-4.107-1.478-2.135zm-1.807 2.628-.657-.657c-.164-.329-.329-.657-.329-.822 0-.164 0-.492.329-.657.164-.328.493-.328.657-.164.329.164.493.329.657.657l.493.657-1.15.986z"/>
	<path fill="#fff" d="M39.918 80C17.906 80 0 62.094 0 39.918 0 17.906 17.905 0 39.918 0 62.094 0 80 17.905 80 39.918 80 62.094 62.094 80 39.918 80zm0-77.7C19.22 2.3 2.3 19.22 2.3 39.918 2.3 60.78 19.22 77.7 39.918 77.7 60.78 77.7 77.7 60.78 77.7 39.918 77.7 19.22 60.78 2.3 39.918 2.3z"/>
</svg>
